assets/Woman in motorized wheelchair/Dark/Flat/woman_in_motorized_wheelchair_flat_dark.svg

<svg width="32" height="32" viewBox="0 0 32 32" fill="none" xmlns="http://www.w3.org/2000/svg">
<path d="M12.9913 26.1681C12.9913 26.0238 12.8743 25.9067 12.7299 25.9067C12.5855 25.9067 12.4685 26.0238 12.4685 26.1681V28.5581C12.4685 28.7025 12.5855 28.8195 12.7299 28.8195C12.8743 28.8195 12.9913 28.7025 12.9913 28.5581V26.1681Z" fill="#635994"/>
<path d="M24.7513 26.1681C24.7513 26.0238 24.6343 25.9067 24.4899 25.9067C24.3455 25.9067 24.2285 26.0238 24.2285 26.1681V28.5581C24.2285 28.7025 24.3455 28.8195 24.4899 28.8195C24.6343 28.8195 24.7513 28.7025 24.7513 28.5581V26.1681Z" fill="#635994"/>
<path d="M24.4272 5.4095C24.4556 5.23434 24.3366 5.06932 24.1615 5.04093C23.9863 5.01254 23.8213 5.13152 23.7929 5.30668L23.1429 9.31668C23.1145 9.49185 23.2335 9.65686 23.4086 9.68525C23.5838 9.71365 23.7488 9.59467 23.7772 9.4195L24.4272 5.4095Z" fill="#321B41"/>
<path d="M6.14165 23.7197C5.98235 23.6415 5.78984 23.7073 5.71165 23.8666C5.63347 24.0258 5.69922 24.2184 5.85852 24.2965L9.66852 26.1665C9.71258 26.1882 9.761 26.1994 9.81008 26.1994H11.4201C11.5975 26.1994 11.7414 26.0556 11.7414 25.8781C11.7414 25.7007 11.5975 25.5568 11.4201 25.5568H9.88468L9.54352 25.3894L8.33984 24.1289L6.30981 23.8022L6.14165 23.7197Z" fill="#321B41"/>
<path d="M21.04 20.9181V21.9381L18.5628 22.4561L16.03 21.9381V20.9181L18.5628 20.2783L21.04 20.9181Z" fill="#CA0B4A"/>
<path d="M11.18 25.218L14.67 23.268V26.648H11.56C11.14 26.648 10.79 26.308 10.79 25.878C10.79 25.608 10.94 25.358 11.18 25.218Z" fill="#CA0B4A"/>
<path d="M26.04 25.218L22.55 23.268V26.648H25.66C26.08 26.648 26.43 26.308 26.43 25.878C26.43 25.608 26.28 25.358 26.04 25.218Z" fill="#CA0B4A"/>
<path d="M21.97 21.938H15.14C14.41 21.938 13.86 22.598 13.99 23.318L14.6 26.748C14.68 27.198 15.08 27.528 15.54 27.528H21.7C22.17 27.528 22.57 27.178 22.64 26.708L23.13 23.268C23.23 22.568 22.68 21.938 21.97 21.938Z" fill="#F92F60"/>
<path d="M18.53 24.9181C17.12 24.9181 15.97 26.0681 15.97 27.4781C15.97 28.8881 17.12 30.0381 18.53 30.0381C19.94 30.0381 21.09 28.8881 21.09 27.4781C21.09 26.0581 19.95 24.9181 18.53 24.9181Z" fill="#9B9B9B"/>
<path d="M23 28.5381C23 29.3581 23.67 30.0281 24.49 30.0281C25.31 30.0281 25.98 29.3581 25.98 28.5381C25.98 27.7181 25.31 27.0481 24.49 27.0481C23.67 27.0481 23 27.7181 23 28.5381Z" fill="#9B9B9B"/>
<path d="M11.24 28.5381C11.24 27.7181 11.91 27.0481 12.73 27.0481C13.55 27.0481 14.22 27.7181 14.22 28.5381C14.22 29.3581 13.55 30.0281 12.73 30.0281C11.91 30.0281 11.24 29.3581 11.24 28.5381Z" fill="#9B9B9B"/>
<path d="M18.53 28.9781C19.3585 28.9781 20.03 28.3066 20.03 27.4781C20.03 26.6497 19.3585 25.9781 18.53 25.9781C17.7016 25.9781 17.03 26.6497 17.03 27.4781C17.03 28.3066 17.7016 28.9781 18.53 28.9781Z" fill="#D3D3D3"/>
<path d="M24.4901 29.4181C24.9761 29.4181 25.3701 29.0241 25.3701 28.5381C25.3701 28.0521 24.9761 27.6581 24.4901 27.6581C24.0041 27.6581 23.6101 28.0521 23.6101 28.5381C23.6101 29.0241 24.0041 29.4181 24.4901 29.4181Z" fill="#D3D3D3"/>
<path d="M13.6101 28.5381C13.6101 29.0241 13.2161 29.4181 12.7301 29.4181C12.2441 29.4181 11.8501 29.0241 11.8501 28.5381C11.8501 28.0521 12.2441 27.6581 12.7301 27.6581C13.2161 27.6581 13.6101 28.0521 13.6101 28.5381Z" fill="#D3D3D3"/>
<path d="M18.5299 28.0781C18.8613 28.0781 19.1299 27.8094 19.1299 27.4781C19.1299 27.1467 18.8613 26.8781 18.5299 26.8781C18.1986 26.8781 17.9299 27.1467 17.9299 27.4781C17.9299 27.8094 18.1986 28.0781 18.5299 28.0781Z" fill="#1C1C1C"/>
<path d="M24.49 29.0181C24.7551 29.0181 24.97 28.8032 24.97 28.5381C24.97 28.273 24.7551 28.0581 24.49 28.0581C24.2249 28.0581 24.01 28.273 24.01 28.5381C24.01 28.8032 24.2249 29.0181 24.49 29.0181Z" fill="#1C1C1C"/>
<path d="M13.21 28.5381C13.21 28.8032 12.9951 29.0181 12.73 29.0181C12.4649 29.0181 12.25 28.8032 12.25 28.5381C12.25 28.273 12.4649 28.0581 12.73 28.0581C12.9951 28.0581 13.21 28.273 13.21 28.5381Z" fill="#1C1C1C"/>
<path d="M21.0498 6.85803L21.0998 8.81803L19.0998 8.87803L19.0698 6.89803L21.0498 6.85803Z" fill="#452829"/>
<path d="M9.30005 22.9681L10.45 17.0881C10.66 16.0381 11.22 15.6481 11.96 15.5981L16.41 15.1581H21.05C21.05 15.1581 21.83 18.1581 20.68 18.1581L13.26 18.1681C13.04 18.1681 12.83 18.2981 12.75 18.5081L10.37 24.1881L9.35079 23.9484L9.30005 22.9681Z" fill="#9B9B9B"/>
<path d="M20.31 8.49806C19.06 8.28806 17.87 9.13806 17.66 10.3881L16.5 15.1681L20.58 18.1681L22.2 11.1481C22.41 9.88806 21.56 8.70806 20.31 8.49806Z" fill="#8B62BF"/>
<path d="M15.4099 15.0481H14.8899V16.1481H15.4099V15.0481Z" fill="#321B41"/>
<path d="M15.15 15.298C15.4814 15.298 15.75 15.0294 15.75 14.698C15.75 14.3667 15.4814 14.098 15.15 14.098C14.8187 14.098 14.55 14.3667 14.55 14.698C14.55 15.0294 14.8187 15.298 15.15 15.298Z" fill="#433B6B"/>
<path d="M14.0299 13.568C13.8699 13.628 13.7999 13.808 13.8499 13.968L14.5508 13.7461L14.9099 13.188L14.0299 13.568Z" fill="#341A1C"/>
<path d="M21.39 10.1481L21.18 13.8681C21.15 14.3581 20.75 14.7481 20.27 14.7681L16.05 14.8081C15.76 14.8081 15.48 14.7681 15.21 14.6781L15.08 14.6381L14.5 14.8881C14.35 14.9481 14.17 14.9081 14.08 14.7681C14.05 14.7181 14.03 14.6681 14.03 14.6181C13.87 14.6881 13.67 14.6081 13.6 14.4381C13.53 14.2681 13.61 14.0781 13.78 14.0081L13.85 13.9681L14.9094 13.1883C15.1694 13.0683 16.02 12.9781 16.18 12.9781L19.26 12.8981C19.31 12.8981 19.36 12.8481 19.36 12.7981L19.52 10.0381C19.55 9.52808 19.99 9.12808 20.51 9.15808C21.02 9.18808 21.42 9.62808 21.39 10.1481Z" fill="#573739"/>
<path d="M21.31 12.588C21.4 12.598 21.48 12.518 21.49 12.428L21.6 9.98803C21.63 9.31803 21.11 8.74803 20.44 8.71803C19.77 8.68803 19.2 9.20803 19.17 9.87803L19.06 12.218C19.05 12.348 19.15 12.448 19.28 12.458C19.82 12.498 20.72 12.548 21.31 12.588Z" fill="#A17FD5"/>
<path d="M10.3699 24.188L9.82989 25.288C9.76989 25.398 9.63989 25.448 9.52989 25.388L6.33989 23.818C6.04989 23.678 6.11989 23.248 6.43989 23.198L9.30989 22.968L10.3699 24.188Z" fill="#533566"/>
<path d="M20.3209 2.80291L19.3009 2.76291C18.4409 2.72291 17.7009 3.40291 17.6709 4.26291L17.6509 4.70291C17.6409 4.84291 17.6009 4.97291 17.5309 5.09291C17.3009 5.44291 17.2109 5.47291 17.1909 5.64291C17.1609 5.92291 17.4209 5.99291 17.5409 6.01291C17.5809 6.02291 17.6009 6.05291 17.6009 6.08291C17.5909 7.05291 17.7409 7.75291 18.9009 7.80291C19.6109 7.83291 20.7409 7.52291 21.1009 6.70291L21.4409 5.59291L21.8309 4.43291C21.8609 3.57291 21.1809 2.84291 20.3209 2.80291Z" fill="#573739"/>
<path d="M18.6052 6.11814C18.6571 6.14298 18.6791 6.20522 18.6543 6.25716C18.5179 6.54219 18.174 6.64957 17.8952 6.51623C17.8433 6.49139 17.8213 6.42915 17.8462 6.37721C17.871 6.32526 17.9332 6.3033 17.9852 6.32814C18.1664 6.4148 18.3825 6.34218 18.4662 6.16721C18.491 6.11526 18.5532 6.0933 18.6052 6.11814Z" fill="#290118"/>
<path d="M18.8304 4.4721C18.8158 4.47203 18.8014 4.46908 18.7881 4.46341C18.7747 4.45775 18.7625 4.44949 18.7524 4.43911C18.5917 4.30213 18.3884 4.2254 18.1774 4.2221C18.1628 4.22172 18.1484 4.21846 18.1351 4.21252C18.1218 4.20658 18.1098 4.19807 18.0997 4.18748C18.0897 4.1769 18.0819 4.16444 18.0766 4.15082C18.0714 4.1372 18.069 4.12268 18.0694 4.1081C18.0678 4.09297 18.0698 4.07769 18.075 4.06342C18.0803 4.04916 18.0887 4.03628 18.0997 4.02577C18.1107 4.01526 18.124 4.00739 18.1385 4.00277C18.153 3.99815 18.1683 3.9969 18.1834 3.9991C18.4516 4.0027 18.7095 4.10322 18.9094 4.2821C18.9299 4.30305 18.9415 4.33124 18.9415 4.3606C18.9415 4.38997 18.9299 4.41816 18.9094 4.43911C18.899 4.44956 18.8867 4.45786 18.8732 4.46353C18.8596 4.46919 18.8451 4.47211 18.8304 4.4721V4.4721Z" fill="black"/>
<path d="M18.011 4.77294C18.011 4.77294 18.211 4.45294 18.611 4.54294C18.761 4.57294 18.881 4.67294 18.951 4.75294C19.011 4.82294 18.991 4.92294 18.921 4.97294L18.631 5.15294L18.011 4.77294Z" fill="black"/>
<path d="M18.0209 5.17289C17.9609 5.17289 17.9109 5.11289 17.9109 5.04289V5.03289C17.9209 4.74289 18.1809 4.59289 18.4109 4.60289C18.6509 4.61289 18.8909 4.78289 18.8809 5.07289V5.08289C18.8809 5.15289 18.8209 5.21289 18.7609 5.20289L18.0209 5.17289Z" fill="white"/>
<path d="M17.9309 5.17284C17.9209 5.13284 17.9109 5.08284 17.9209 5.03284C17.9309 4.82284 18.0709 4.66284 18.2309 4.66284C18.3909 4.67284 18.5209 4.85284 18.5109 5.06284C18.5109 5.11284 18.5009 5.15284 18.4809 5.19284L17.9309 5.17284Z" fill="#7D4533"/>
<path d="M18.031 5.17288C18.011 5.13288 18.001 5.09288 18.001 5.03288C18.001 4.91288 18.081 4.82288 18.181 4.82288C18.271 4.82288 18.351 4.92288 18.341 5.04288C18.341 5.09288 18.321 5.14288 18.301 5.17288H18.031Z" fill="black"/>
<path d="M18.1316 4.89609C18.1332 4.85746 18.1077 4.82503 18.0746 4.82365C18.0414 4.82228 18.0133 4.85247 18.0117 4.89109C18.0101 4.92972 18.0356 4.96215 18.0687 4.96353C18.1018 4.96491 18.13 4.93471 18.1316 4.89609Z" fill="white"/>
<path d="M22.6799 5.38809L22.9199 3.89809C23.0299 3.18809 23.6399 2.66809 24.3599 2.66809C25.2599 2.66809 25.9399 3.46809 25.7999 4.34809L25.5599 5.83809C25.4399 6.54809 24.8399 7.06809 24.1199 7.06809C23.2199 7.06809 22.5399 6.26809 22.6799 5.38809Z" fill="#433B6B"/>
<path d="M23.4501 8.02808C22.7301 8.02808 22.1301 8.54808 22.0101 9.25808L20.5797 18.1581H16.3125L15.2148 17.3672L13.9844 18.1581H13.25C12.96 18.1581 12.73 18.3881 12.73 18.6781V20.4081C12.73 20.6981 12.96 20.9281 13.25 20.9281H24.05C24.34 20.9281 24.57 20.6981 24.57 20.4081V18.6781C24.57 18.3981 24.34 18.1581 24.05 18.1581H23.5297L23.7958 16.5072L23.3646 15.642L24.0716 14.7963L24.8901 9.71808C25.0301 8.82808 24.3401 8.02808 23.4501 8.02808Z" fill="#433B6B"/>
<path d="M15.1501 17.5781C15.614 17.5781 15.9901 17.202 15.9901 16.7381C15.9901 16.2742 15.614 15.8981 15.1501 15.8981C14.6861 15.8981 14.3101 16.2742 14.3101 16.7381C14.3101 17.202 14.6861 17.5781 15.1501 17.5781Z" fill="#F92F60"/>
<path d="M17.85 14.7881H24.0659L23.8 16.5281H17.85C17.37 16.5281 16.98 16.1381 16.98 15.6581C16.98 15.1781 17.37 14.7881 17.85 14.7881Z" fill="#635994"/>
<path d="M14.33 16.748H15.97C16.16 16.748 16.32 16.898 16.32 17.098V18.158H13.98V17.098C13.98 16.908 14.14 16.748 14.33 16.748Z" fill="#635994"/>
<path d="M22.5401 16.068C22.7776 16.068 22.9701 15.8755 22.9701 15.638C22.9701 15.4005 22.7776 15.208 22.5401 15.208C22.3026 15.208 22.1101 15.4005 22.1101 15.638C22.1101 15.8755 22.3026 16.068 22.5401 16.068Z" fill="#321B41"/>
<path d="M18.7609 1.72289C18.2409 1.50289 17.6809 1.99289 17.5109 2.52289C17.3909 2.89289 17.5009 3.28289 17.7709 3.54289C17.8509 3.62289 17.9609 3.70289 18.1009 3.76289C18.2109 3.81289 18.3309 3.85289 18.4609 3.87289C18.7009 3.91289 18.9509 3.88289 19.1709 3.79289C19.3009 3.73289 19.4509 3.72289 19.5909 3.75289C19.7609 3.79289 19.9109 3.88289 20.0109 4.02289C20.1409 4.19289 20.2009 4.40289 20.1909 4.62289L20.1892 4.65665C20.4751 4.72109 20.6851 4.97477 20.6815 5.27237C20.6777 5.59063 20.434 5.86331 20.1251 5.89857L20.1109 6.17289C20.0609 6.97289 20.5309 7.72289 21.2909 7.99289C21.3059 7.99789 21.3234 8.00289 21.3409 8.00789C21.3584 8.01289 21.3759 8.01789 21.3909 8.02289C21.4309 8.04289 21.4709 8.05289 21.5109 8.06289C22.2109 8.24289 23.0009 7.84289 23.1909 7.01289C23.2809 6.62289 23.1809 6.22289 22.9409 5.91289C22.8909 5.85289 22.8409 5.80289 22.7909 5.75289C22.5809 5.55289 22.5009 5.25289 22.5809 4.97289C22.6709 4.64289 22.7309 4.20289 22.7509 3.60289C22.7909 1.88289 21.2309 1.65289 20.1609 1.92289C19.5804 2.06803 19.4029 1.9921 19.0519 1.84192C18.9676 1.80584 18.8732 1.76549 18.7609 1.72289Z" fill="black"/>
</svg>

<svg xmlns="http://www.w3.org/2000/svg" width="32" height="32" fill="none"><path fill="#635994" d="M12.991 26.168a.261.261 0 0 0-.522 0v2.39a.261.261 0 1 0 .522 0v-2.39ZM24.751 26.168a.261.261 0 0 0-.523 0v2.39a.261.261 0 1 0 .523 0v-2.39Z"/><path fill="#321B41" d="M24.427 5.41a.321.321 0 1 0-.634-.103l-.65 4.01a.321.321 0 1 0 .634.102l.65-4.01ZM6.142 23.72a.321.321 0 0 0-.283.577l3.81 1.87a.32.32 0 0 0 .141.032h1.61a.321.321 0 1 0 0-.642H9.885l-.341-.168-1.204-1.26-2.03-.327-.168-.082Z"/><path fill="#CA0B4A" d="M21.04 20.918v1.02l-2.477.518-2.533-.518v-1.02l2.533-.64 2.477.64ZM11.18 25.218l3.49-1.95v3.38h-3.11a.77.77 0 0 1-.77-.77c0-.27.15-.52.39-.66ZM26.04 25.218l-3.49-1.95v3.38h3.11c.42 0 .77-.34.77-.77a.77.77 0 0 0-.39-.66Z"/><path fill="#F92F60" d="M21.97 21.938h-6.83c-.73 0-1.28.66-1.15 1.38l.61 3.43c.08.45.48.78.94.78h6.16c.47 0 .87-.35.94-.82l.49-3.44c.1-.7-.45-1.33-1.16-1.33Z"/><path fill="#9B9B9B" d="M18.53 24.918c-1.41 0-2.56 1.15-2.56 2.56 0 1.41 1.15 2.56 2.56 2.56 1.41 0 2.56-1.15 2.56-2.56 0-1.42-1.14-2.56-2.56-2.56ZM23 28.538c0 .82.67 1.49 1.49 1.49s1.49-.67 1.49-1.49-.67-1.49-1.49-1.49-1.49.67-1.49 1.49ZM11.24 28.538c0-.82.67-1.49 1.49-1.49s1.49.67 1.49 1.49-.67 1.49-1.49 1.49-1.49-.67-1.49-1.49Z"/><path fill="#D3D3D3" d="M18.53 28.978a1.5 1.5 0 1 0 0-3 1.5 1.5 0 0 0 0 3ZM24.49 29.418a.88.88 0 1 0 0-1.76.88.88 0 0 0 0 1.76ZM13.61 28.538a.88.88 0 1 1-1.76 0 .88.88 0 0 1 1.76 0Z"/><path fill="#1C1C1C" d="M18.53 28.078a.6.6 0 1 0 0-1.2.6.6 0 0 0 0 1.2ZM24.49 29.018a.48.48 0 1 0 0-.96.48.48 0 0 0 0 .96ZM13.21 28.538a.48.48 0 1 1-.96 0 .48.48 0 0 1 .96 0Z"/><path fill="#452829" d="m21.05 6.858.05 1.96-2 .06-.03-1.98 1.98-.04Z"/><path fill="#9B9B9B" d="m9.3 22.968 1.15-5.88c.21-1.05.77-1.44 1.51-1.49l4.45-.44h4.64s.78 3-.37 3l-7.42.01c-.22 0-.43.13-.51.34l-2.38 5.68-1.02-.24-.05-.98Z"/><path fill="#8B62BF" d="M20.31 8.498c-1.25-.21-2.44.64-2.65 1.89l-1.16 4.78 4.08 3 1.62-7.02c.21-1.26-.64-2.44-1.89-2.65Z"/><path fill="#321B41" d="M15.41 15.048h-.52v1.1h.52v-1.1Z"/><path fill="#433B6B" d="M15.15 15.298a.6.6 0 1 0 0-1.2.6.6 0 0 0 0 1.2Z"/><path fill="#341A1C" d="M14.03 13.568c-.16.06-.23.24-.18.4l.7-.222.36-.558-.88.38Z"/><path fill="#573739" d="m21.39 10.148-.21 3.72c-.03.49-.43.88-.91.9l-4.22.04c-.29 0-.57-.04-.84-.13l-.13-.04-.58.25c-.15.06-.33.02-.42-.12a.298.298 0 0 1-.05-.15.33.33 0 0 1-.43-.18c-.07-.17.01-.36.18-.43l.07-.04 1.06-.78c.26-.12 1.11-.21 1.27-.21l3.08-.08c.05 0 .1-.05.1-.1l.16-2.76c.03-.51.47-.91.99-.88.51.03.91.47.88.99Z"/><path fill="#A17FD5" d="M21.31 12.588c.09.01.17-.07.18-.16l.11-2.44c.03-.67-.49-1.24-1.16-1.27-.67-.03-1.24.49-1.27 1.16l-.11 2.34c-.01.13.09.23.22.24.54.04 1.44.09 2.03.13Z"/><path fill="#533566" d="m10.37 24.188-.54 1.1c-.06.11-.19.16-.3.1l-3.19-1.57c-.29-.14-.22-.57.1-.62l2.87-.23 1.06 1.22Z"/><path fill="#573739" d="m20.32 2.803-1.02-.04c-.86-.04-1.6.64-1.63 1.5l-.02.44a.89.89 0 0 1-.12.39c-.23.35-.32.38-.34.55-.03.28.23.35.35.37.04.01.06.04.06.07-.01.97.14 1.67 1.3 1.72.71.03 1.84-.28 2.2-1.1l.34-1.11.39-1.16c.03-.86-.65-1.59-1.51-1.63Z"/><path fill="#290118" d="M18.605 6.118a.104.104 0 0 1 .05.14.568.568 0 0 1-.76.258.104.104 0 1 1 .09-.188.36.36 0 0 0 .481-.16.104.104 0 0 1 .14-.05Z"/><path fill="#000" d="M18.83 4.472a.11.11 0 0 1-.078-.033.908.908 0 0 0-.575-.217.11.11 0 0 1-.108-.114.1.1 0 0 1 .114-.109c.269.004.526.104.726.283a.112.112 0 0 1-.036.182.111.111 0 0 1-.043.008ZM18.011 4.773s.2-.32.6-.23c.15.03.27.13.34.21.06.07.04.17-.03.22l-.29.18-.62-.38Z"/><path fill="#fff" d="M18.02 5.173c-.06 0-.11-.06-.11-.13v-.01c.01-.29.27-.44.5-.43.24.01.48.18.47.47v.01c0 .07-.06.13-.12.12l-.74-.03Z"/><path fill="#7D4533" d="M17.93 5.173c-.01-.04-.02-.09-.01-.14.01-.21.15-.37.31-.37.16.01.29.19.28.4 0 .05-.01.09-.03.13l-.55-.02Z"/><path fill="#000" d="M18.031 5.173a.29.29 0 0 1-.03-.14c0-.12.08-.21.18-.21.09 0 .17.1.16.22 0 .05-.02.1-.04.13h-.27Z"/><path fill="#fff" d="M18.132 4.896c.001-.039-.024-.071-.057-.072-.034-.002-.062.028-.063.067-.002.039.024.071.057.073.033 0 .061-.03.063-.068Z"/><path fill="#433B6B" d="m22.68 5.388.24-1.49c.11-.71.72-1.23 1.44-1.23.9 0 1.58.8 1.44 1.68l-.24 1.49a1.46 1.46 0 0 1-1.44 1.23c-.9 0-1.58-.8-1.44-1.68ZM23.45 8.028c-.72 0-1.32.52-1.44 1.23l-1.43 8.9h-4.267l-1.098-.79-1.23.79h-.735c-.29 0-.52.23-.52.52v1.73c0 .29.23.52.52.52h10.8c.29 0 .52-.23.52-.52v-1.73c0-.28-.23-.52-.52-.52h-.52l.266-1.65-.431-.866.707-.846.818-5.078c.14-.89-.55-1.69-1.44-1.69Z"/><path fill="#F92F60" d="M15.15 17.578a.84.84 0 1 0 0-1.68.84.84 0 0 0 0 1.68Z"/><path fill="#635994" d="M17.85 14.788h6.216l-.266 1.74h-5.95a.87.87 0 0 1 0-1.74ZM14.33 16.748h1.64c.19 0 .35.15.35.35v1.06h-2.34v-1.06c0-.19.16-.35.35-.35Z"/><path fill="#321B41" d="M22.54 16.068a.43.43 0 1 0 0-.86.43.43 0 0 0 0 .86Z"/><path fill="#000" d="M18.76 1.723c-.52-.22-1.08.27-1.25.8-.12.37-.01.76.26 1.02.08.08.19.16.33.22.11.05.23.09.36.11.24.04.49.01.71-.08a.704.704 0 0 1 .84.23c.13.17.19.38.18.6v.034a.627.627 0 0 1 .491.615.64.64 0 0 1-.556.627l-.014.274a1.802 1.802 0 0 0 1.23 1.835l.05.015c.04.02.08.03.12.04.7.18 1.49-.22 1.68-1.05a1.313 1.313 0 0 0-.4-1.26c-.21-.2-.29-.5-.21-.78.09-.33.15-.77.17-1.37.04-1.72-1.52-1.95-2.59-1.68-.58.145-.758.07-1.11-.081a7.184 7.184 0 0 0-.29-.12Z"/></svg>
